assets/icons/icon_volume_v2.svg

<svg width="30" height="30" viewBox="0 0 30 30" fill="none" xmlns="http://www.w3.org/2000/svg">
<path d="M14.6603 8.39783H9.93447C9.86244 8.39065 9.78968 8.39857 9.72093 8.42107C9.65218 8.44358 9.58896 8.48017 9.53539 8.52847C9.48182 8.57676 9.43909 8.63569 9.40996 8.70142C9.38084 8.76716 9.36598 8.83823 9.36634 8.91003C9.36598 8.98182 9.38084 9.0529 9.40996 9.11863C9.43909 9.18436 9.48182 9.24329 9.53539 9.29159C9.58896 9.33989 9.65218 9.37647 9.72093 9.39898C9.78968 9.42148 9.86244 9.4294 9.93447 9.42222H14.6603C14.7324 9.4294 14.8051 9.42148 14.8739 9.39898C14.9426 9.37647 15.0058 9.33989 15.0594 9.29159C15.113 9.24329 15.1557 9.18436 15.1848 9.11863C15.2139 9.0529 15.2288 8.98182 15.2284 8.91003C15.2288 8.83823 15.2139 8.76716 15.1848 8.70142C15.1557 8.63569 15.113 8.57676 15.0594 8.52847C15.0058 8.48017 14.9426 8.44358 14.8739 8.42107C14.8051 8.39857 14.7324 8.39065 14.6603 8.39783Z" fill="white"/>
<path d="M14.6603 11.5477H9.93447C9.86244 11.5406 9.78968 11.5485 9.72093 11.571C9.65218 11.5935 9.58896 11.6301 9.53539 11.6784C9.48182 11.7267 9.43909 11.7856 9.40996 11.8513C9.38084 11.9171 9.36598 11.9881 9.36634 12.0599C9.36949 12.1295 9.38694 12.1978 9.41761 12.2605C9.44828 12.3232 9.49154 12.379 9.54472 12.4246C9.5979 12.4701 9.6599 12.5044 9.72692 12.5254C9.79393 12.5464 9.86456 12.5536 9.93447 12.5465H14.6603C14.7302 12.5536 14.8009 12.5464 14.8679 12.5254C14.9349 12.5044 14.9969 12.4701 15.0501 12.4246C15.1033 12.379 15.1465 12.3232 15.1772 12.2605C15.2078 12.1978 15.2253 12.1295 15.2284 12.0599C15.2288 11.9881 15.2139 11.9171 15.1848 11.8513C15.1557 11.7856 15.113 11.7267 15.0594 11.6784C15.0058 11.6301 14.9426 11.5935 14.8739 11.571C14.8051 11.5485 14.7324 11.5406 14.6603 11.5477Z" fill="white"/>
<path d="M14.6603 14.8924H9.93445C9.85715 14.8686 9.7753 14.8632 9.69548 14.8765C9.61567 14.8898 9.54013 14.9216 9.47496 14.9692C9.40979 15.0168 9.35681 15.0789 9.3203 15.1505C9.28379 15.2222 9.26477 15.3013 9.26477 15.3816C9.26477 15.4618 9.28379 15.541 9.3203 15.6126C9.35681 15.6843 9.40979 15.7464 9.47496 15.794C9.54013 15.8416 9.61567 15.8733 9.69548 15.8867C9.7753 15.9 9.85715 15.8945 9.93445 15.8707H14.6603C14.7376 15.8945 14.8194 15.9 14.8993 15.8867C14.9791 15.8733 15.0546 15.8416 15.1198 15.794C15.1849 15.7464 15.2379 15.6843 15.2744 15.6126C15.3109 15.541 15.33 15.4618 15.33 15.3816C15.33 15.3013 15.3109 15.2222 15.2744 15.1505C15.2379 15.0789 15.1849 15.0168 15.1198 14.9692C15.0546 14.9216 14.9791 14.8898 14.8993 14.8765C14.8194 14.8632 14.7376 14.8686 14.6603 14.8924Z" fill="white"/>
<path d="M12.7337 18.2372H9.9292C9.8519 18.2134 9.77005 18.2079 9.69023 18.2212C9.61042 18.2346 9.53488 18.2663 9.46971 18.3139C9.40454 18.3615 9.35156 18.4236 9.31505 18.4953C9.27854 18.5669 9.25952 18.646 9.25952 18.7263C9.25952 18.8066 9.27854 18.8857 9.31505 18.9574C9.35156 19.029 9.40454 19.0911 9.46971 19.1387C9.53488 19.1863 9.61042 19.2181 9.69023 19.2314C9.77005 19.2447 9.8519 19.2393 9.9292 19.2155H12.7337C12.811 19.2393 12.8929 19.2447 12.9727 19.2314C13.0525 19.2181 13.128 19.1863 13.1932 19.1387C13.2584 19.0911 13.3113 19.029 13.3479 18.9574C13.3844 18.8857 13.4034 18.8066 13.4034 18.7263C13.4034 18.646 13.3844 18.5669 13.3479 18.4953C13.3113 18.4236 13.2584 18.3615 13.1932 18.3139C13.128 18.2663 13.0525 18.2346 12.9727 18.2212C12.8929 18.2079 12.811 18.2134 12.7337 18.2372Z" fill="white"/>
<path d="M25.9403 17.479V10.7437C25.8968 10.2278 25.6655 9.74537 25.2895 9.38634C24.897 9.05854 22.5057 7.62951 21.6741 7.14805V4.5H4L5.83869 6.65122V19.3076C5.83869 20.7878 9.19584 25.5 9.19584 25.5H19.5875C20.2684 24.3185 20.8655 23.0913 21.3746 21.8276C22.3146 21.2744 24.7575 19.8198 25.1604 19.4356C25.6308 18.8865 25.9049 18.1986 25.9403 17.479ZM18.9006 24.3937H9.81046C8.40562 22.3449 7.00594 19.958 6.99045 19.3076V6.65122C6.99134 6.39583 6.8997 6.14863 6.73221 5.95463L6.43265 5.60634H20.5275V20.5163C20.5275 21.0798 19.7321 22.8571 18.8903 24.3937M24.7782 17.479C24.7433 17.9034 24.5894 18.3097 24.334 18.652C24.1533 18.8261 22.9757 19.5637 21.6793 20.3371V8.44902C23.0222 9.25317 24.3185 10.0471 24.52 10.2161C24.6602 10.3765 24.75 10.5742 24.7782 10.7846V17.479Z" fill="white"/>
</svg>

<svg xmlns="http://www.w3.org/2000/svg" width="30" height="30" fill="none" viewBox="0 0 30 30"><path fill="#fff" d="M14.66 8.398H9.934a.52.52 0 0 0-.524.303.5.5 0 0 0 0 .418.51.51 0 0 0 .524.303h4.726a.52.52 0 0 0 .525-.303.5.5 0 0 0 0-.418.51.51 0 0 0-.525-.303M14.66 11.548H9.934a.52.52 0 0 0-.524.303.5.5 0 0 0-.044.209.51.51 0 0 0 .36.465.5.5 0 0 0 .208.021h4.726a.52.52 0 0 0 .517-.285.5.5 0 0 0 .051-.201.51.51 0 0 0-.354-.489.5.5 0 0 0-.214-.023M14.66 14.892H9.934a.52.52 0 0 0-.614.258.51.51 0 0 0 .375.737q.122.02.24-.016h4.725a.52.52 0 0 0 .614-.258.51.51 0 0 0-.375-.736.5.5 0 0 0-.239.015M12.734 18.237H9.929a.52.52 0 0 0-.614.258.51.51 0 0 0 .155.644.52.52 0 0 0 .46.076h2.804a.52.52 0 0 0 .614-.258.51.51 0 0 0-.375-.736.5.5 0 0 0-.24.016"/><path fill="#fff" d="M25.94 17.479v-6.735a2.12 2.12 0 0 0-.65-1.358c-.393-.327-2.784-1.756-3.616-2.238V4.5H4l1.839 2.151v12.657c0 1.48 3.357 6.192 3.357 6.192h10.391a29 29 0 0 0 1.788-3.672c.94-.554 3.383-2.008 3.785-2.392.47-.55.745-1.237.78-1.957m-7.04 6.915H9.81c-1.404-2.05-2.804-4.436-2.82-5.086V6.65c.001-.255-.09-.502-.258-.696l-.3-.349h14.096v14.91c0 .564-.796 2.341-1.638 3.878m5.888-6.915c-.035.424-.189.83-.444 1.173-.18.174-1.358.912-2.655 1.685V8.45c1.343.804 2.64 1.598 2.841 1.767.14.16.23.358.258.569z"/></svg>
